Icons/src/actions/symbolic/align-horizontal-left-to-anchor-symbolic.svg

<svg width="16" height="16" version="1.1" viewBox="0 0 4.233 4.233" xmlns="http://www.w3.org/2000/svg">
 <path d="m1.5884 0v0.265h-1.4554c-0.073292-5.5526e-4 -0.133 0.058706-0.133 0.132v1.058c0 0.073 0.059 0.132 0.132 0.132h1.4554v2.646h0.26462v-0.529h2.249c0.072902 0 0.132-0.059098 0.132-0.132v-1.058c5.553e-4 -0.073292-0.058706-0.133-0.132-0.133h-2.249v-0.264h1.455c0.073685 5.604e-4 0.13356-0.059315 0.133-0.133v-1.058c2.1e-6 -0.073294-0.059708-0.13256-0.133-0.132h-1.455v-0.794h-0.26462zm-1.3234 0.53h1.3234v0.793h-1.3234v-0.794zm1.587 0.528h1.323v0.794h-1.323zm0 1.588h2.118v0.794h-2.118z" fill="#363636"/>
</svg>

<svg xmlns="http://www.w3.org/2000/svg" viewBox="0 0 4.233 4.233" height="16" width="16"><path d="M1.323 0v.265H.133A.132.132 0 0 0 0 .397v1.058c0 .073.059.132.132.132h1.19v2.646h.53v-.529h2.249a.132.132 0 0 0 .132-.132V2.514a.132.132 0 0 0-.132-.133H1.852v-.264h1.455a.132.132 0 0 0 .133-.133V.926a.132.132 0 0 0-.133-.132H1.852V0h-.53zM.265.53h1.058v.793H.265V.529zm1.587.528h1.323v.794H1.852v-.794zm0 1.588H3.97v.794H1.852v-.794z" style="marker:none" fill="#363636"/><rect ry="0" rx="0" y=".529" x=".265" height=".794" width="1.323" style="marker:none;font-variant-east_asian:normal" opacity=".3" fill="#363636" fill-opacity=".931"/><path d="M1.587 1.058v.794h1.588v-.794zm0 1.588v.794H3.97v-.794z" opacity=".1" fill="#363636" fill-opacity=".931"/></svg>
